5213small.cube
# Generated by FilmConvert
# Date: 2020/01/27
# Time 18:03:49
TITLE "5213small.cube"
LUT_3D_SIZE 6
0.000706 0.000690 0.003597
0.218004 0.003914 0.002028
0.532569 0.005207 0.001417
0.775642 0.005841 0.002045
0.890966 0.004997 0.002555
0.890936 0.004467 0.002920
0.000500 0.128787 0.002544
0.199003 0.189080 0.001041
0.589633 0.238996 0.007776
0.843302 0.232569 0.002914
0.975165 0.190290 0.004112
0.980509 0.177279 0.004416
0.001123 0.431555 0.001350
0.282377 0.513407 0.010596
0.594523 0.541361 0.031792
0.877944 0.554727 0.041527
0.979262 0.510680 0.048715
0.999498 0.451923 0.042085
0.003937 0.695852 0.001827
0.314561 0.773722 0.018518
0.619691 0.790760 0.049573
0.863805 0.796759 0.082830
0.960913 0.770660 0.127213
0.999498 0.679425 0.145198
0.003895 0.869895 0.002757
0.269489 0.932360 0.020765
0.569615 0.973250 0.070122
0.813228 0.968135 0.122991
0.944305 0.956106 0.210679
0.998176 0.878721 0.244439
0.004123 0.894189 0.003453
0.233963 0.953943 0.018970
0.479471 0.999500 0.091657
0.726305 0.999499 0.162191
0.887657 0.999499 0.237394
0.983665 0.992161 0.322612
0.000632 0.000619 0.147346
0.199173 0.003049 0.177629
0.568714 0.003023 0.202234
0.844006 0.002874 0.215275
0.967916 0.002556 0.200353
0.969691 0.002517 0.198104
0.000500 0.143361 0.159686
0.166884 0.165469 0.168372
0.559038 0.115284 0.142526
0.837695 0.083567 0.135138
0.981900 0.086857 0.144073
0.992383 0.081264 0.140364
0.000500 0.454846 0.227351
0.123581 0.497655 0.165431
0.613211 0.544691 0.196878
0.893594 0.497858 0.187380
0.983616 0.411708 0.182669
0.999498 0.359344 0.171857
0.000615 0.744164 0.262682
0.153591 0.762586 0.186096
0.562755 0.806663 0.239105
0.867975 0.806906 0.306163
0.964098 0.764867 0.332314
0.999498 0.679068 0.301849
0.001279 0.905094 0.243260
0.181909 0.950262 0.210040
0.521077 0.976715 0.286033
0.806989 0.965452 0.414507
0.941172 0.951918 0.513419
0.997214 0.876299 0.549632
0.001801 0.925013 0.224815
0.179832 0.986996 0.215125
0.480450 0.999500 0.324556
0.737592 0.999499 0.490962
0.888659 0.999323 0.553672
0.986773 0.992534 0.612037
0.000501 0.007041 0.428538
0.193101 0.004815 0.481960
0.581068 0.005311 0.526810
0.879931 0.003906 0.514115
0.994013 0.017616 0.466407
0.999499 0.012418 0.443580
0.000501 0.190947 0.479958
0.097364 0.121992 0.495909
0.590462 0.131923 0.535375
0.875094 0.125855 0.472766
0.990851 0.113482 0.403631
0.999499 0.093613 0.375002
0.000501 0.467596 0.524788
0.087366 0.488747 0.540897
0.563891 0.557532 0.582465
0.864107 0.462186 0.511221
0.985399 0.398392 0.445596
0.999499 0.371762 0.418885
0.000501 0.778113 0.573682
0.105785 0.789428 0.532635
0.494998 0.808706 0.537742
0.859766 0.818275 0.566900
0.967346 0.739967 0.513135
0.999499 0.663087 0.476049
0.000501 0.978426 0.563980
0.155266 0.977370 0.508118
0.531698 0.974045 0.544708
0.789818 0.966844 0.596821
0.944906 0.943144 0.624047
0.999446 0.873452 0.607266
0.000501 0.999501 0.522204
0.159907 0.999500 0.470001
0.509047 0.999499 0.539634
0.749749 0.999498 0.632337
0.893368 0.999498 0.745424
0.992548 0.994292 0.832737
0.000501 0.012374 0.688926
0.166809 0.006018 0.755295
0.576178 0.004781 0.807683
0.895571 0.069117 0.837972
0.986948 0.096356 0.782105
0.999500 0.066206 0.673207
0.000502 0.212321 0.772082
0.066352 0.114674 0.766139
0.502553 0.138809 0.808122
0.884124 0.189820 0.825527
0.984113 0.193485 0.741761
0.999500 0.119795 0.616860
0.000502 0.484381 0.803252
0.072653 0.423213 0.793331
0.399600 0.466438 0.807259
0.877142 0.487398 0.829800
0.979426 0.457951 0.756633
0.999500 0.379763 0.643951
0.000502 0.772965 0.827688
0.139753 0.773719 0.824142
0.446431 0.791200 0.822669
0.838592 0.821226 0.837775
0.953111 0.750035 0.791115
0.984336 0.660432 0.708714
0.109354 0.969283 0.830942
0.202228 0.967212 0.789148
0.475514 0.965417 0.792168
0.774805 0.959667 0.815627
0.937177 0.942657 0.827510
0.994448 0.875533 0.775268
0.095658 0.999500 0.748361
0.171017 0.999500 0.711750
0.463901 0.999499 0.741932
0.746344 0.999498 0.796615
0.895029 0.999498 0.835555
0.995316 0.990378 0.853183
0.000502 0.014113 0.849835
0.143158 0.005977 0.894287
0.464935 0.026616 0.974885
0.863786 0.117857 0.977089
0.973879 0.141743 0.956479
0.999500 0.130442 0.904176
0.000502 0.196220 0.917053
0.065121 0.114703 0.918778
0.341394 0.147912 0.962003
0.816681 0.210085 0.973125
0.973034 0.233652 0.954937
0.999500 0.186779 0.888440
0.000502 0.467204 0.969573
0.063749 0.383673 0.957111
0.341703 0.424853 0.975644
0.789614 0.460740 0.968767
0.968707 0.472134 0.952372
0.999500 0.426467 0.892057
0.061831 0.753280 0.977494
0.142543 0.694855 0.973671
0.398892 0.693405 0.969270
0.742360 0.738633 0.942135
0.959022 0.723806 0.944851
0.999500 0.679115 0.894021
0.152860 0.944440 0.962929
0.242302 0.942690 0.960415
0.481988 0.941750 0.955043
0.733262 0.939168 0.947576
0.927906 0.934442 0.940901
0.994619 0.898711 0.919139
0.159415 0.998803 0.907652
0.208415 0.999457 0.895506
0.438135 0.999499 0.899774
0.692044 0.999498 0.901497
0.896076 0.999498 0.923974
0.993631 0.994820 0.930565
0.000502 0.015147 0.866179
0.132265 0.005885 0.906008
0.400105 0.016321 0.991891
0.717710 0.096213 0.999507
0.914500 0.136762 0.999509
0.999500 0.151390 0.991671
0.000502 0.187243 0.929820
0.063130 0.101751 0.937987
0.288649 0.120418 0.988460
0.634459 0.165023 0.999506
0.906010 0.188856 0.999509
0.999396 0.193103 0.989636
0.000503 0.433679 0.992331
0.057130 0.339794 0.985856
0.323480 0.395829 0.999503
0.602866 0.418219 0.999506
0.905332 0.422668 0.999509
0.998339 0.408642 0.989250
0.045222 0.652226 0.999502
0.096829 0.593579 0.999502
0.349585 0.613681 0.999505
0.639778 0.666862 0.989527
0.890715 0.673826 0.998734
0.999500 0.656787 0.987059
0.121772 0.867071 0.999504
0.163306 0.842548 0.999504
0.397240 0.846343 0.999506
0.658642 0.852597 0.996731
0.902223 0.890859 0.997870
0.998248 0.877571 0.986496
0.171039 0.986967 0.997766
0.207992 0.986274 0.997349
0.415827 0.985863 0.996644
0.664133 0.990878 0.996427
0.876936 0.993812 0.996340
0.993819 0.993864 0.991194
