5213small.cube
# Generated by FilmConvert
# Date: 2020/01/27
# Time 18:03:49
TITLE "5213small.cube"
LUT_3D_SIZE 16
0.000706 0.000690 0.003597
0.027407 0.001365 0.004284
0.130577 0.002024 0.002347
0.218004 0.003914 0.002028
0.316274 0.004631 0.001693
0.428083 0.004812 0.001416
0.532569 0.005207 0.001417
0.618681 0.005761 0.001584
0.698750 0.005945 0.001827
0.775642 0.005841 0.002045
0.832080 0.005603 0.002234
0.868795 0.005294 0.002402
0.890966 0.004997 0.002555
0.890952 0.004796 0.002694
0.890941 0.004607 0.002820
0.890936 0.004467 0.002920
0.000692 0.016941 0.003800
0.025943 0.020522 0.003827
0.125215 0.036600 0.002056
0.214402 0.041520 0.001755
0.315685 0.044135 0.001428
0.431639 0.044925 0.001317
0.538536 0.046186 0.001370
0.631034 0.047254 0.001646
0.717784 0.047000 0.002077
0.793631 0.046007 0.002414
0.850967 0.044625 0.002635
0.887710 0.042803 0.002794
0.910609 0.041001 0.002925
0.910795 0.040708 0.003040
0.910605 0.040485 0.003143
0.910515 0.040334 0.003224
0.000649 0.052606 0.004254
0.032938 0.061632 0.003099
0.111166 0.087166 0.001365
0.207464 0.111590 0.001280
0.320962 0.124071 0.001151
0.440427 0.125992 0.001095
0.546894 0.124954 0.001200
0.645052 0.124029 0.001496
0.739031 0.120734 0.002170
0.818916 0.115924 0.002762
0.880103 0.109187 0.003155
0.919046 0.100701 0.003381
0.943009 0.091726 0.003525
0.945480 0.089280 0.003635
0.945039 0.088169 0.003725
0.944740 0.087445 0.003790
0.000500 0.128787 0.002544
0.035404 0.149022 0.001146
0.116267 0.170817 0.001056
0.199003 0.189080 0.001041
0.328089 0.218685 0.003276
0.471188 0.232858 0.007553
0.589633 0.238996 0.007776
0.683152 0.241781 0.003835
0.766396 0.239454 0.002280
0.843302 0.232569 0.002914
0.907572 0.221488 0.003545
0.950512 0.206690 0.003912
0.975165 0.190290 0.004112
0.982239 0.181963 0.004242
0.981224 0.179216 0.004342
0.980509 0.177279 0.004416
0.000500 0.230913 0.002533
0.040193 0.252021 0.001001
0.129570 0.278536 0.000985
0.227996 0.300416 0.003419
0.325373 0.310096 0.008619
0.469524 0.341360 0.014760
0.600961 0.354042 0.017711
0.709375 0.358453 0.018830
0.798472 0.359418 0.017992
0.870350 0.352985 0.015841
0.930301 0.339194 0.014399
0.972325 0.320158 0.013723
0.990240 0.297498 0.012506
0.999498 0.279686 0.011064
0.999498 0.275029 0.010674
0.999498 0.271614 0.010398
0.000511 0.332510 0.002508
0.045666 0.355987 0.001098
0.142822 0.386659 0.001209
0.258529 0.412396 0.007629
0.369613 0.430097 0.015852
0.470402 0.435610 0.021169
0.595772 0.456928 0.025693
0.706658 0.464018 0.027337
0.802132 0.464511 0.028163
0.884078 0.462692 0.029194
0.938634 0.453354 0.029525
0.966104 0.434021 0.029313
0.985106 0.406987 0.028222
0.998290 0.377713 0.025637
0.999498 0.369194 0.024662
0.999498 0.364516 0.024082
0.001123 0.431555 0.001350
0.050194 0.457490 0.001392
0.155131 0.489779 0.001896
0.282377 0.513407 0.010596
0.403058 0.531207 0.020918
0.505059 0.539763 0.027310
0.594523 0.541361 0.031792
0.697636 0.553052 0.035877
0.792058 0.555918 0.038722
0.877944 0.554727 0.041527
0.927599 0.549805 0.044576
0.957538 0.535993 0.047371
0.979262 0.510680 0.048715
0.993684 0.476918 0.046168
0.999498 0.456954 0.043307
0.999498 0.451923 0.042085
0.002563 0.526729 0.001331
0.052390 0.552015 0.001979
0.164759 0.585095 0.003038
0.298665 0.606075 0.013215
0.424512 0.622037 0.024532
0.526700 0.630084 0.031694
0.612566 0.632012 0.037287
0.694097 0.630744 0.042851
0.784328 0.636186 0.048891
0.869167 0.637550 0.055018
0.916456 0.634081 0.061264
0.948108 0.624266 0.067541
0.972651 0.603555 0.072725
0.988922 0.570636 0.073132
0.999393 0.538180 0.069195
0.999498 0.531337 0.066724
0.003624 0.614277 0.001508
0.053130 0.636089 0.002553
0.173383 0.671623 0.004091
0.310243 0.693344 0.015927
0.434072 0.706631 0.027659
0.535278 0.712651 0.035972
0.620464 0.713983 0.043118
0.702417 0.714367 0.050584
0.783924 0.714801 0.058937
0.866281 0.717523 0.068794
0.908239 0.715183 0.079311
0.939943 0.706858 0.090390
0.966121 0.689800 0.100156
0.984355 0.660183 0.105226
0.997084 0.622244 0.103970
0.999498 0.605741 0.101529
0.003937 0.695852 0.001827
0.053083 0.715186 0.003001
0.177621 0.751362 0.005166
0.314561 0.773722 0.018518
0.433701 0.785250 0.030784
0.533058 0.789158 0.040546
0.619691 0.790760 0.049573
0.703520 0.793137 0.059174
0.785418 0.795240 0.070181
0.863805 0.796759 0.082830
0.902359 0.794493 0.097097
0.933850 0.786187 0.112740
0.960913 0.770660 0.127213
0.980599 0.743295 0.137502
0.993895 0.705879 0.142257
0.999498 0.679425 0.145198
0.004015 0.772654 0.002148
0.052238 0.787483 0.003343
0.174907 0.820349 0.006117
0.308531 0.843636 0.020616
0.424738 0.856489 0.033971
0.524593 0.861099 0.045313
0.612182 0.862927 0.056272
0.696814 0.866194 0.068195
0.778817 0.869256 0.081448
0.855731 0.869929 0.096576
0.895862 0.869213 0.114412
0.928661 0.862498 0.133899
0.956683 0.846755 0.152516
0.977516 0.819330 0.167432
0.991419 0.781868 0.176883
0.999498 0.748994 0.184587
0.003964 0.831557 0.002463
0.050606 0.843584 0.003621
0.165497 0.874299 0.006685
0.292538 0.897935 0.021440
0.405178 0.913620 0.036408
0.507070 0.922479 0.049911
0.596881 0.926361 0.063109
0.681972 0.930151 0.077165
0.763659 0.933839 0.092559
0.838925 0.934397 0.110017
0.885721 0.933005 0.130765
0.921589 0.931659 0.156423
0.952239 0.917652 0.180991
0.974337 0.889259 0.198639
0.989174 0.852189 0.209119
0.999498 0.813968 0.215997
0.003895 0.869895 0.002757
0.048337 0.879948 0.003863
0.151556 0.908473 0.006782
0.269489 0.932360 0.020765
0.374599 0.950530 0.037447
0.476244 0.964513 0.053819
0.569615 0.973250 0.070122
0.656359 0.973144 0.086898
0.738037 0.970950 0.103996
0.813228 0.968135 0.122991
0.872373 0.964741 0.146853
0.907975 0.960602 0.176799
0.944305 0.956106 0.210679
0.970919 0.942260 0.232178
0.986920 0.918830 0.240716
0.998176 0.878721 0.244439
0.003905 0.893608 0.003020
0.046237 0.902353 0.004075
0.137752 0.929291 0.006745
0.244860 0.953468 0.019245
0.339864 0.971780 0.037108
0.436666 0.988167 0.056544
0.531162 0.991030 0.076487
0.620212 0.988952 0.096792
0.703661 0.986977 0.115777
0.779706 0.984881 0.135566
0.850915 0.982376 0.160854
0.890675 0.979351 0.193421
0.926647 0.976205 0.227749
0.963159 0.973267 0.258832
0.984345 0.955729 0.270515
0.995763 0.931842 0.272699
0.004009 0.894179 0.003255
0.045873 0.902637 0.004265
0.134516 0.929471 0.006869
0.237653 0.954771 0.019019
0.323029 0.976793 0.037293
0.408705 0.997068 0.059206
0.497069 0.999500 0.082723
0.583093 0.999278 0.106050
0.666344 0.998443 0.127350
0.744059 0.996576 0.147873
0.815120 0.994570 0.171932
0.871494 0.992415 0.202330
0.906119 0.990232 0.234970
0.940870 0.987776 0.264963
0.975470 0.984538 0.292830
0.992233 0.963934 0.302180
0.004123 0.894189 0.003453
0.045632 0.902575 0.004426
0.132256 0.928988 0.006984
0.233963 0.953943 0.018970
0.315774 0.975496 0.037891
0.393931 0.996374 0.063226
0.479471 0.999500 0.091657
0.566540 0.999499 0.117669
0.650690 0.999499 0.140938
0.726305 0.999499 0.162191
0.793435 0.999499 0.184127
0.855020 0.999499 0.209147
0.887657 0.999499 0.237394
0.917954 0.998227 0.266570
0.950305 0.995011 0.295707
0.983665 0.992161 0.322612
0.000789 0.000687 0.020995
0.024869 0.001451 0.023059
0.124800 0.002215 0.039071
0.217788 0.002703 0.039666
0.323067 0.002386 0.038393
0.437629 0.002162 0.036936
0.541198 0.002352 0.036771
0.630929 0.002698 0.037970
0.716261 0.002935 0.039337
0.792420 0.003031 0.040375
0.849624 0.003070 0.040441
0.886352 0.003094 0.039447
0.909089 0.003113 0.038211
0.909323 0.003131 0.038608
0.909459 0.003155 0.038846
0.909491 0.003188 0.038890
0.000751 0.017731 0.021354
0.023256 0.019431 0.022111
0.119929 0.020750 0.020263
0.213816 0.022426 0.014866
0.320677 0.021128 0.013702
0.435330 0.019523 0.013171
0.535841 0.019403 0.013404
0.621031 0.019345 0.014209
0.700949 0.018517 0.015140
0.776332 0.017483 0.015827
0.834114 0.016786 0.016216
0.873000 0.016472 0.016414
0.898396 0.016446 0.016626
0.899729 0.016473 0.016784
0.899788 0.016525 0.016832
0.899781 0.016606 0.016749
0.000647 0.054620 0.030498
0.019836 0.064748 0.021327
0.104186 0.082365 0.018343
0.203451 0.094157 0.014272
0.313924 0.094787 0.013278
0.431664 0.083617 0.012836
0.538441 0.073112 0.013189
0.634047 0.068646 0.014265
0.724486 0.065911 0.015495
0.800842 0.063202 0.016490
0.860468 0.060538 0.017153
0.900546 0.058019 0.017497
0.926592 0.055815 0.017639
0.930891 0.055386 0.017688
0.930971 0.055490 0.017685
0.931187 0.055763 0.017638
0.000500 0.133208 0.039032
0.013700 0.155021 0.016728
0.099262 0.172411 0.014003
0.194093 0.184018 0.014229
0.326108 0.200808 0.018317
0.463179 0.202000 0.020094
0.567746 0.195485 0.015721
0.655877 0.184648 0.013842
0.743353 0.172801 0.015266
0.823421 0.162026 0.016568
0.887547 0.150999 0.017553
0.930702 0.139198 0.018160
0.956908 0.127747 0.018466
0.965595 0.122597 0.018588
0.965394 0.122016 0.018612
0.965431 0.122161 0.018584
0.000500 0.234348 0.042683
0.013606 0.259612 0.013526
0.095192 0.278090 0.013043
0.206022 0.295723 0.018309
0.322501 0.305252 0.024736
0.471380 0.324239 0.030392
0.600527 0.323889 0.033137
0.702427 0.317990 0.033203
0.782039 0.307140 0.029684
0.850205 0.290761 0.026852
0.911870 0.273270 0.026511
0.958097 0.254620 0.026880
0.985605 0.234739 0.026588
0.998546 0.220202 0.025872
0.997687 0.217114 0.025668
0.997241 0.215543 0.025507
0.000500 0.338615 0.045402
0.016105 0.363332 0.013559
0.091377 0.384551 0.013626
0.215718 0.405465 0.020965
0.347576 0.424799 0.031864
0.470840 0.432221 0.038657
0.600775 0.444053 0.043327
0.709806 0.440462 0.044906
0.802200 0.433102 0.045689
0.877968 0.422153 0.045255
0.936107 0.403469 0.043762
0.967616 0.379136 0.043000
0.985903 0.351083 0.042308
0.998485 0.323497 0.040490
0.999498 0.314944 0.039612
0.999498 0.310274 0.038962
0.000500 0.440566 0.048856
0.018352 0.462175 0.014776
0.089896 0.485115 0.015593
0.220350 0.503191 0.023053
0.364501 0.524412 0.036870
0.492478 0.537242 0.046052
0.598145 0.540406 0.052518
0.704775 0.545331 0.058086
0.798848 0.540592 0.061273
0.882977 0.533485 0.063385
0.929966 0.522181 0.064707
0.959436 0.501386 0.065430
0.980411 0.471267 0.065324
0.994332 0.436011 0.062389
0.999498 0.415545 0.059662
0.999498 0.407067 0.057739
0.000793 0.536831 0.051602
0.019458 0.552531 0.016228
0.091674 0.577414 0.018024
0.224025 0.593787 0.026114
0.372836 0.613882 0.041008
0.504211 0.627425 0.052399
0.607259 0.632386 0.061528
0.700110 0.632854 0.070961
0.792634 0.634174 0.080384
0.876437 0.630796 0.088293
0.918516 0.622954 0.093555
0.950223 0.608125 0.096838
0.974231 0.582871 0.099222
0.989976 0.547348 0.097262
0.999483 0.514652 0.092081
0.999498 0.503748 0.087480
0.001291 0.623968 0.052932
0.020025 0.633101 0.017342
0.095962 0.660497 0.020079
0.228770 0.679664 0.030152
0.372825 0.698173 0.045268
0.505580 0.710418 0.059244
0.610878 0.715471 0.072028
0.703418 0.718006 0.085552
0.790686 0.719583 0.100597
0.872201 0.719480 0.116882
0.908414 0.713951 0.131209
0.940549 0.702146 0.141586
0.966983 0.682120 0.147928
0.985166 0.650785 0.149089
0.997763 0.612286 0.144350
0.999498 0.595689 0.136251
0.001665 0.705468 0.053908
0.020358 0.709976 0.018063
0.099306 0.738845 0.022486
0.231412 0.760184 0.034879
0.367605 0.777661 0.050497
0.498305 0.788225 0.066773
0.608147 0.793954 0.083778
0.702392 0.797870 0.101893
0.787724 0.800014 0.121225
0.866389 0.801223 0.142306
0.901408 0.796789 0.164400
0.932891 0.786263 0.184835
0.960354 0.769446 0.199825
0.980493 0.741870 0.208768
0.994022 0.705249 0.210692
0.999498 0.679831 0.206146
0.001972 0.780815 0.054327
0.020390 0.781840 0.018538
0.098972 0.807601 0.024586
0.229257 0.831172 0.039469
0.358783 0.850059 0.056636
0.485689 0.861107 0.075008
0.597755 0.867511 0.096326
0.694134 0.871785 0.119130
0.778094 0.873423 0.141210
0.854656 0.873017 0.164575
0.894489 0.871647 0.190418
0.927447 0.863323 0.215255
0.955562 0.846448 0.237444
0.976752 0.819894 0.256419
0.990964 0.784581 0.267951
0.999498 0.753231 0.272620
0.002243 0.838485 0.053592
0.020342 0.837594 0.018863
0.094915 0.862483 0.025683
0.220693 0.887487 0.042578
0.344291 0.908889 0.062600
0.466880 0.923140 0.083983
0.578579 0.931311 0.109457
0.677135 0.936363 0.136435
0.761075 0.937754 0.160799
0.836199 0.936597 0.185689
0.883952 0.933894 0.212663
0.920383 0.931669 0.242299
0.951175 0.916668 0.270471
0.973433 0.888962 0.292674
0.988462 0.854255 0.306812
0.999448 0.817816 0.314604
0.002507 0.875626 0.051397
0.020459 0.874192 0.019067
0.088329 0.898273 0.025949
0.206400 0.924142 0.043823
0.323301 0.948486 0.067292
0.441033 0.967284 0.092994
0.550346 0.975919 0.122890
0.649573 0.973000 0.154490
0.735323 0.970203 0.180800
0.810614 0.967260 0.205914
0.870754 0.963810 0.234611
0.906901 0.959650 0.267892
0.943439 0.955064 0.302660
0.970013 0.941128 0.325514
0.986114 0.918694 0.336629
0.997484 0.881179 0.342228
0.002766 0.898427 0.048932
0.020711 0.897094 0.019202
0.081567 0.920837 0.025838
0.190328 0.947365 0.043907
0.299159 0.972661 0.070503
0.411001 0.992259 0.101143
0.516038 0.990911 0.135577
0.614079 0.988590 0.172075
0.702029 0.986443 0.200957
0.778789 0.984157 0.226600
0.850067 0.981527 0.255783
0.890152 0.978553 0.289426
0.926105 0.975421 0.321965
0.962306 0.972287 0.350989
0.983467 0.954868 0.363391
0.995076 0.931626 0.367079
0.003012 0.898729 0.048602
0.021032 0.897492 0.019324
0.080971 0.921739 0.025953
0.186037 0.950220 0.044486
0.286936 0.979884 0.073698
0.389722 0.999355 0.109366
0.487255 0.999500 0.148318
0.579691 0.999202 0.188232
0.667094 0.997905 0.220218
0.745342 0.995884 0.246643
0.816164 0.993817 0.273288
0.871723 0.991728 0.302402
0.906071 0.989561 0.331560
0.940481 0.987047 0.358208
0.974836 0.983765 0.384161
0.991696 0.963577 0.393668
0.003223 0.898709 0.048338
0.021317 0.897556 0.019433
0.080716 0.921660 0.026081
0.184090 0.949979 0.045075
0.281196 0.979854 0.077565
0.378206 0.999366 0.120147
0.473260 0.999500 0.163628
0.565147 0.999499 0.205991
0.651137 0.999499 0.239996
0.726951 0.999499 0.266050
0.793931 0.999499 0.288615
0.854697 0.999498 0.311442
0.887307 0.999498 0.336039
0.918330 0.997625 0.361278
0.950419 0.994555 0.387376
0.983234 0.991696 0.413635
0.000969 0.000646 0.066899
0.031685 0.001365 0.070658
0.110824 0.002325 0.088698
0.213125 0.002860 0.107939
0.327198 0.002513 0.114506
0.447574 0.002287 0.114471
0.554091 0.002488 0.114851
0.651065 0.002801 0.118008
0.745109 0.002963 0.123193
0.823216 0.002965 0.127240
0.882255 0.002916 0.127232
0.919310 0.002878 0.122925
0.942099 0.002855 0.117241
0.943038 0.002846 0.117195
0.942990 0.002855 0.117046
0.942845 0.002877 0.116653
0.000758 0.028002 0.070195
0.018561 0.019961 0.073837
0.104319 0.018673 0.082323
0.206801 0.018821 0.085449
0.321611 0.017106 0.082168
0.442480 0.015729 0.076192
0.546674 0.015637 0.073407
0.639821 0.015915 0.075324
0.730526 0.015969 0.079967
0.807111 0.015827 0.083969
0.866507 0.015660 0.085204
0.905510 0.015555 0.083321
0.930586 0.015512 0.079795
0.933008 0.015517 0.079297
0.932865 0.015568 0.078874
0.932641 0.015645 0.078254
0.000613 0.062042 0.073428
0.014445 0.067309 0.075495
0.089580 0.075128 0.075055
0.193764 0.072776 0.067776
0.306341 0.062909 0.059061
0.431618 0.050685 0.049744
0.541097 0.046057 0.045644
0.637277 0.043541 0.046587
0.729742 0.042388 0.051603
0.808136 0.041614 0.056477
0.869742 0.041011 0.059999
0.911584 0.040543 0.061782
0.939077 0.040273 0.061981
0.945573 0.040205 0.061795
0.945471 0.040309 0.061350
0.945287 0.040467 0.060681
0.000500 0.135052 0.092787
0.010577 0.152844 0.087541
0.070880 0.169246 0.067985
0.182530 0.175244 0.066323
0.316751 0.176706 0.065381
0.444430 0.164125 0.058952
0.547611 0.141668 0.049295
0.646606 0.122221 0.048213
0.741392 0.109378 0.051973
0.824190 0.101950 0.056699
0.890661 0.097369 0.061030
0.936506 0.093370 0.064497
0.965383 0.089445 0.066434
0.976005 0.087197 0.066891
0.975717 0.086669 0.066523
0.975319 0.086256 0.065785
0.000500 0.233149 0.110265
0.010561 0.254418 0.091542
0.059454 0.272855 0.062349
0.172377 0.285870 0.065092
0.313287 0.296452 0.072116
0.473559 0.300538 0.075960
0.600653 0.286497 0.075093
0.687234 0.266522 0.067696
0.761153 0.244958 0.062905
0.836792 0.227338 0.064644
0.904001 0.213509 0.068388
0.953244 0.201641 0.072255
0.984001 0.189626 0.074690
0.998163 0.180538 0.075253
0.997822 0.177433 0.074702
0.997390 0.174594 0.073624
0.000500 0.340749 0.121385
0.011882 0.362382 0.091592
0.058943 0.381562 0.060177
0.159487 0.396938 0.063344
0.311378 0.416851 0.076743
0.471123 0.428256 0.086056
0.611778 0.429622 0.090098
0.720592 0.416437 0.091001
0.805688 0.400396 0.089955
0.868660 0.376803 0.086064
0.923473 0.350857 0.084689
0.968296 0.327859 0.086593
0.987330 0.305310 0.088238
0.998851 0.284957 0.087921
0.999498 0.276804 0.086656
0.999498 0.269647 0.084663
0.000500 0.450859 0.133567
0.013796 0.467075 0.095710
0.060730 0.484230 0.064471
0.152733 0.496650 0.067846
0.305848 0.516258 0.081124
0.474807 0.535848 0.095425
0.609082 0.541973 0.104515
0.721663 0.541033 0.111281
0.813793 0.530711 0.113931
0.892271 0.517951 0.113760
0.932446 0.497463 0.112235
0.961580 0.468869 0.111505
0.981964 0.436840 0.111316
0.995436 0.404053 0.109111
0.999498 0.385381 0.106422
0.999498 0.373026 0.102712
0.000500 0.553473 0.145417
0.015380 0.561903 0.101732
0.062972 0.577178 0.072037
0.154233 0.588269 0.076230
0.299232 0.605556 0.087962
0.472249 0.627003 0.105763
0.609027 0.637026 0.120237
0.716320 0.638525 0.133693
0.809515 0.635989 0.144680
0.885147 0.627785 0.150395
0.921898 0.614988 0.150194
0.953216 0.594644 0.148301
0.976371 0.565023 0.147780
0.991391 0.528388 0.144946
0.999498 0.497967 0.139739
0.999498 0.483173 0.132759
0.000608 0.643245 0.153379
0.016351 0.644818 0.106444
0.064686 0.660681 0.079012
0.160733 0.674683 0.085089
0.295402 0.691599 0.097516
0.462588 0.711258 0.117751
0.606540 0.722359 0.138627
0.712413 0.725280 0.159016
0.802413 0.725777 0.179625
0.875161 0.722599 0.197746
0.910779 0.713354 0.207842
0.943323 0.698097 0.210093
0.969427 0.675300 0.209163
0.986813 0.642749 0.205842
0.998801 0.605174 0.198140
0.999498 0.589116 0.185563
0.000985 0.725865 0.156796
0.016862 0.722923 0.108613
0.065495 0.739474 0.084207
0.169235 0.757680 0.094333
0.296996 0.774249 0.108995
0.450786 0.790876 0.130805
0.596997 0.801711 0.157297
0.705521 0.805124 0.185407
0.792169 0.805200 0.212923
0.866401 0.805170 0.239540
0.901242 0.799228 0.263731
0.933167 0.787827 0.281163
0.961163 0.770115 0.288660
0.981409 0.741738 0.289036
0.994850 0.705386 0.282975
0.999498 0.681507 0.270005
0.001277 0.798166 0.157285
0.017136 0.793395 0.108531
0.065610 0.809357 0.087757
0.176472 0.832855 0.103141
0.300775 0.850320 0.120483
0.440599 0.864919 0.144356
0.580089 0.875098 0.176283
0.691768 0.878638 0.210942
0.778287 0.877707 0.241909
0.854187 0.875466 0.271359
0.892964 0.873505 0.300790
0.926132 0.864837 0.326091
0.954640 0.848366 0.345907
0.976394 0.822932 0.359861
0.990886 0.789295 0.364819
0.999498 0.759148 0.362252
0.001541 0.853650 0.153614
0.017361 0.848613 0.105903
0.065463 0.865867 0.089548
0.179185 0.893628 0.109924
0.301257 0.913351 0.131070
0.429992 0.928114 0.157561
0.559368 0.938697 0.194784
0.670625 0.942978 0.234559
0.758912 0.941531 0.267854
0.833912 0.938226 0.297588
0.882282 0.935176 0.326130
0.918898 0.930093 0.355311
0.949848 0.913312 0.382003
0.972440 0.886961 0.403546
0.987720 0.855967 0.416795
0.998869 0.823127 0.422763
0.001799 0.888764 0.145656
0.017621 0.884411 0.100805
0.065389 0.903712 0.090128
0.177101 0.934461 0.114334
0.296078 0.957421 0.140190
0.416127 0.973387 0.170127
0.535606 0.976239 0.211601
0.643089 0.972804 0.256470
0.732689 0.969530 0.291902
0.809056 0.966222 0.320416
0.869704 0.962541 0.349177
0.905935 0.958302 0.380464
0.942355 0.953644 0.411870
0.968835 0.939879 0.433545
0.985106 0.913108 0.445833
0.996570 0.880619 0.452687
0.002049 0.910060 0.137333
0.017907 0.906718 0.095450
0.065406 0.928836 0.090068
0.172046 0.960866 0.116797
0.286268 0.985621 0.147183
0.398574 0.993215 0.180674
0.509201 0.991032 0.225963
0.611918 0.988437 0.275525
0.701919 0.985992 0.313766
0.779400 0.983404 0.343313
0.849325 0.980545 0.372082
0.890112 0.977539 0.402385
0.925630 0.974368 0.430746
0.961211 0.971000 0.455482
0.982474 0.953846 0.467798
0.994187 0.930482 0.473305
0.002288 0.910031 0.135648
0.018196 0.907136 0.094252
0.065574 0.930557 0.089756
0.170323 0.966100 0.118534
0.280063 0.995048 0.153681
0.385329 0.999500 0.191707
0.487338 0.999500 0.240108
0.583038 0.999160 0.292671
0.671081 0.997444 0.334020
0.748965 0.995193 0.365659
0.818131 0.992974 0.392254
0.872742 0.990873 0.417396
0.906423 0.988679 0.441714
0.940215 0.986121 0.463879
0.974429 0.982912 0.485737
0.991166 0.963007 0.495799
0.002501 0.909842 0.134173
0.018467 0.907082 0.093272
0.065754 0.930592 0.089469
0.169514 0.966315 0.120424
0.276518 0.995729 0.161966
0.377454 0.999500 0.206490
0.476190 0.999500 0.257379
0.570050 0.999499 0.311658
0.655467 0.999499 0.355397
0.730292 0.999499 0.386955
0.795658 0.999499 0.409471
0.852786 0.999498 0.428583
0.887825 0.999321 0.448477
0.919269 0.996871 0.468795
0.950727 0.993919 0.490732
0.983345 0.991356 0.515631
0.000632 0.000619 0.147346
0.031469 0.001041 0.155760
0.108645 0.002173 0.166129
0.199173 0.003049 0.177629
0.324197 0.003167 0.195631
0.454115 0.003029 0.202360
0.568714 0.003023 0.202234
0.670828 0.003072 0.204689
0.764741 0.003023 0.210273
0.844006 0.002874 0.215275
0.904999 0.002716 0.215652
0.944055 0.002613 0.209737
0.967916 0.002556 0.200353
0.970001 0.002528 0.199142
0.969863 0.002517 0.198679
0.969691 0.002517 0.198104
0.000584 0.033371 0.153447
0.011075 0.021575 0.161746
0.094211 0.017330 0.170666
0.193138 0.018992 0.174017
0.317966 0.018282 0.181249
0.448016 0.017021 0.178503
0.560249 0.016416 0.169580
0.659724 0.016125 0.167317
0.753104 0.015791 0.170672
0.831931 0.015428 0.174375
0.892897 0.015131 0.174697
0.932841 0.014933 0.170228
0.958062 0.014814 0.162548
0.962004 0.014752 0.160802
0.961815 0.014725 0.160216
0.961562 0.014704 0.159469
0.000500 0.082556 0.158309
0.008256 0.080643 0.164140
0.071657 0.064920 0.169541
0.179461 0.063899 0.169467
0.304141 0.057777 0.166762
0.440566 0.050290 0.160484
0.557628 0.045215 0.147189
0.658164 0.042471 0.140735
0.751125 0.040802 0.141509
0.830877 0.039831 0.144416
0.893955 0.039241 0.146126
0.936721 0.038771 0.145172
0.963792 0.038369 0.141518
0.971695 0.038048 0.139710
0.971263 0.037770 0.138998
0.970630 0.037412 0.137857
0.000500 0.143361 0.159686
0.008204 0.151451 0.163253
0.055065 0.159338 0.165951
0.166884 0.165469 0.168372
0.303978 0.164289 0.165988
0.440510 0.145880 0.156460
0.559038 0.115284 0.142526
0.662773 0.095072 0.133220
0.756083 0.085963 0.131918
0.837695 0.083567 0.135138
0.904271 0.084344 0.139420
0.951549 0.086227 0.142956
0.981900 0.086857 0.144073
0.993874 0.085898 0.143587
0.993312 0.083937 0.142401
0.992383 0.081264 0.140364
0.000500 0.229206 0.182746
0.008891 0.244401 0.180920
0.050492 0.261542 0.167638
0.147385 0.275633 0.167869
0.297181 0.288241 0.172492
0.467889 0.286474 0.173953
0.591518 0.261821 0.162688
0.677545 0.228505 0.144429
0.763376 0.205216 0.137841
0.843434 0.192589 0.139417
0.911070 0.186460 0.144228
0.960515 0.183851 0.149576
0.991385 0.180888 0.152885
0.999464 0.177192 0.153401
0.999432 0.173552 0.151800
0.999381 0.168478 0.149028
0.000500 0.336972 0.208667
0.010299 0.354630 0.191824
0.050588 0.374461 0.165274
0.127118 0.391677 0.165279
0.276426 0.409868 0.173067
0.462855 0.423838 0.183823
0.621076 0.421783 0.185622
0.727484 0.397576 0.177072
0.794509 0.360946 0.162431
0.854580 0.329621 0.154661
0.917696 0.310726 0.156431
0.967878 0.297714 0.160859
0.988646 0.285839 0.163603
0.999212 0.274362 0.163517
0.999498 0.267603 0.161116
0.999498 0.259535 0.157226
0.000500 0.454846 0.227351
0.012215 0.467582 0.198602
0.053687 0.483875 0.168995
0.123581 0.497655 0.165431
0.258102 0.512719 0.171195
0.444381 0.534361 0.186990
0.613211 0.544691 0.196878
0.735158 0.540347 0.198948
0.824671 0.522635 0.194462
0.893594 0.497858 0.187380
0.935249 0.466918 0.182810
0.964009 0.438051 0.182313
0.983616 0.411708 0.182669
0.996624 0.386253 0.180746
0.999498 0.371615 0.177212
0.999498 0.359344 0.171857
0.000500 0.565133 0.244239
0.013994 0.569386 0.206812
0.057399 0.581036 0.174739
0.131433 0.591473 0.169742
0.253995 0.605139 0.176641
